X:1
T:The Flying Men
C:T. S. Macdonald
M:C|
L:1/8
K:A
E | A2 c>A c/d/e a2 | A2 c>A G<BB>c | A2 c>A c/d/e a2 | e<ac<a c<A A :|
{ef}g | a>fg>e f<de>c | d<fe>c B2 e/f/g | a>fg<e f>de>c | d<fe>c A2 ef/g/ |
        (3 agf (3 gfe (3 fed (3 edc | (3 def (3 ecA B2 c>E | A2 c>A c/d/e a2 | e<ac<a c<A A |]

